X: 74
T: J. Daly
C: Carolan
%R: jig
B: "The Hibernian Muse" p.46 #2
F: http://imslp.org/wiki/The_Hibernian_Muse_%28Various%29
Z: 2015 John Chambers <jc:trillian.mit.edu>
P: No. LXXIV.
M: 6/8
L: 1/8
K: C
% - - - - - - - - - - - - - - - - - - - - - - - - - - - - -
V: 1
G |\
(A/B/c)c cdc | dAd f2g | {f}ecc egg | a(ab/c'/) Tb2g |\
aea aea | e'(c'/d'/e') d'bg | (a/b/c')a ^geg | [a3e3c3] [a3e3c3] :|
|:\
egc' egc' | Tb2a gec | Bdg cea | {a}g2e dBG |\
(A/B/c)c cGE | cGE D3 | {e}d2c BGB | [c3G3E3] [c3G3E3] :|
% - - - - - - - - - - - - - - - - - - - - - - - - - - - - -
V: 2 clef=bass middle=d
z |\
c3 e3 | f3 d2B | c3 c'3 | f3 g2b |\
c'3 a3 | c'2c g3 | f3 e3 | A3 A3 :|
|:\
c3 c3 | g2f e3 | g3 a3 | e2c g3 |\
f3 e3 | c3 gbg | f2a g2G | c3 c3 :|

%%sep 2 1 500
%%sep 1 1 500

